X:1125
T:The Windrush
C:Jill Lawrence, 1983.  Chords by Colin Hume, 2022.
L:1/8
M:6/8
R:Jig
S:Colin Hume's website,  colinhume.com  - chords can also be printed below the stave.
Q:3/8=112
K:Bb
P:A
|: F | "Eb"GAB "F"AGF | "Eb"GAB "F"AGF | "Bb"Bcd "Gm"dcB | "F"c3- c2d |\
"Eb"e>fg "Bb"fed | "F"c>BA "Gm"G2F | "C7"GBc "F"AGF | "Bb"B3- B2 :|
P:B
|: d | "Eb"e>dc "Bb"d>cB | "Gm"G3- G2A | "F"c>BA "C7"c>BG | "F"F3-F2F |\
"Eb"G2B "F"A2c | "Gm"B2d "F"f2e |1 "Gm"d2c "C7"B2G | "F"c3- c2 :|2 "Gm"d2c "F7"G2F | "Bb"B3- B2 |]

